assets/Smiling cat with heart-eyes/Flat/smiling_cat_with_heart-eyes_flat.svg

<svg width="32" height="32" viewBox="0 0 32 32" fill="none" xmlns="http://www.w3.org/2000/svg">
<path d="M4 25.942C4 28.1739 5.76327 30 7.91837 30H24.0816C26.2367 30 28 28.0725 28 25.8406V6.4297C28 5.1297 26.4099 4.5297 25.5155 5.4297L20.9736 10H11.1617L6.5 5.4297C5.6 4.5297 4 5.1297 4 6.4297V25.942Z" fill="#FFB02E"/>
<path d="M9.00005 10.9265L6.20005 13.5265C5.70005 14.0265 4.80005 13.6265 4.80005 12.9265V7.72648C4.80005 7.12648 5.70005 6.72648 6.20005 7.22648L9.00005 9.82648C9.30005 10.1265 9.30005 10.6265 9.00005 10.9265Z" fill="#FF822D"/>
<path d="M23.05 10.9265L25.85 13.5265C26.35 14.0265 27.25 13.6265 27.25 12.9265V7.72648C27.25 7.12648 26.35 6.72648 25.85 7.22648L23.05 9.82648C22.75 10.1265 22.75 10.6265 23.05 10.9265Z" fill="#FF822D"/>
<path d="M17.0429 20H14.9571C14.5117 20 14.2886 20.5386 14.6036 20.8536L15.6465 21.8964C15.8417 22.0917 16.1583 22.0917 16.3536 21.8964L17.3965 20.8536C17.7114 20.5386 17.4884 20 17.0429 20Z" fill="#F70A8D"/>
<path d="M2.72372 20.0528C2.47673 19.9293 2.17639 20.0294 2.0529 20.2764C1.9294 20.5234 2.02951 20.8237 2.2765 20.9472L6.2765 22.9472C6.52349 23.0707 6.82383 22.9706 6.94732 22.7236C7.07082 22.4766 6.97071 22.1763 6.72372 22.0528L2.72372 20.0528Z" fill="#FF6723"/>
<path d="M2.72372 26.9472C2.47673 27.0707 2.17639 26.9706 2.0529 26.7236C1.9294 26.4766 2.02951 26.1763 2.2765 26.0528L6.2765 24.0528C6.52349 23.9293 6.82383 24.0294 6.94732 24.2764C7.07082 24.5234 6.97071 24.8237 6.72372 24.9472L2.72372 26.9472Z" fill="#FF6723"/>
<path d="M29.9473 20.2764C29.8238 20.0294 29.5235 19.9293 29.2765 20.0528L25.2765 22.0528C25.0295 22.1763 24.9294 22.4766 25.0529 22.7236C25.1764 22.9706 25.4767 23.0707 25.7237 22.9472L29.7237 20.9472C29.9707 20.8237 30.0708 20.5234 29.9473 20.2764Z" fill="#FF6723"/>
<path d="M29.2765 26.9472C29.5235 27.0707 29.8238 26.9706 29.9473 26.7236C30.0708 26.4766 29.9707 26.1763 29.7237 26.0528L25.7237 24.0528C25.4767 23.9293 25.1764 24.0294 25.0529 24.2764C24.9294 24.5234 25.0295 24.8237 25.2765 24.9472L29.2765 26.9472Z" fill="#FF6723"/>
<path d="M15.9999 23.106C15.4625 23.6449 14.5434 24 13.4999 24C12.4681 24 11.5579 23.6527 11.0181 23.1239C11.1384 23.8481 11.9461 27.5 15.9999 27.5C20.0538 27.5 20.8615 23.8481 20.9818 23.1239C20.4419 23.6527 19.5317 24 18.4999 24C17.4564 24 16.5374 23.6449 15.9999 23.106Z" fill="#BB1D80"/>
<path d="M10.6859 14.6698C10.6859 14.6698 9.7894 13.986 8.95404 14.0891C6.90639 14.342 6.64152 16.1406 7.36482 17.2085C8.65861 19.1194 12.5196 20 12.5196 20C12.5196 20 15.1276 17.2459 14.9951 14.9977C14.9238 13.7425 13.5791 12.4029 11.7454 13.2834C11.0017 13.6394 10.6859 14.6698 10.6859 14.6698Z" fill="#CA0B4A"/>
<path d="M21.3105 14.6698C21.3105 14.6698 22.2062 13.986 23.0409 14.0891C25.097 14.342 25.3617 16.1406 24.6288 17.2085C23.3361 19.1194 19.4783 20 19.4783 20C19.4783 20 16.8726 17.2459 17.0049 14.9977C17.0761 13.7425 18.4197 12.4029 20.2519 13.2834C20.995 13.6394 21.3105 14.6698 21.3105 14.6698Z" fill="#CA0B4A"/>
</svg>

<svg xmlns="http://www.w3.org/2000/svg" width="32" height="32" fill="none"><path fill="#FFB02E" d="M4 25.942C4 28.174 5.763 30 7.918 30h16.164C26.237 30 28 28.073 28 25.84V6.43c0-1.3-1.59-1.9-2.485-1L20.974 10h-9.812L6.5 5.43c-.9-.9-2.5-.3-2.5 1v19.512Z"/><path fill="#FF822D" d="m9 10.927-2.8 2.6c-.5.5-1.4.1-1.4-.6v-5.2c0-.6.9-1 1.4-.5l2.8 2.6c.3.3.3.8 0 1.1ZM23.05 10.927l2.8 2.6c.5.5 1.4.1 1.4-.6v-5.2c0-.6-.9-1-1.4-.5l-2.8 2.6c-.3.3-.3.8 0 1.1Z"/><path fill="#F70A8D" d="M17.043 20h-2.086a.5.5 0 0 0-.353.854l1.043 1.042a.5.5 0 0 0 .707 0l1.043-1.042a.5.5 0 0 0-.354-.854Z"/><path fill="#FF6723" d="M2.724 20.053a.5.5 0 1 0-.448.894l4 2a.5.5 0 1 0 .448-.894l-4-2ZM2.724 26.947a.5.5 0 1 1-.448-.894l4-2a.5.5 0 1 1 .448.894l-4 2ZM29.947 20.276a.5.5 0 0 0-.67-.223l-4 2a.5.5 0 1 0 .447.894l4-2a.5.5 0 0 0 .223-.67ZM29.276 26.947a.5.5 0 1 0 .448-.894l-4-2a.5.5 0 1 0-.448.894l4 2Z"/><path fill="#BB1D80" d="M16 23.106c-.537.539-1.457.894-2.5.894-1.032 0-1.942-.347-2.482-.876.12.724.928 4.376 4.982 4.376s4.861-3.652 4.982-4.376c-.54.529-1.45.876-2.482.876-1.044 0-1.963-.355-2.5-.894Z"/><path fill="#CA0B4A" d="M10.686 14.67s-.897-.684-1.732-.58c-2.048.252-2.312 2.05-1.59 3.119C8.66 19.119 12.52 20 12.52 20s2.608-2.754 2.475-5.002c-.071-1.255-1.416-2.595-3.25-1.715-.743.356-1.06 1.387-1.06 1.387ZM21.31 14.67s.896-.684 1.73-.58c2.057.252 2.322 2.05 1.589 3.119-1.293 1.91-5.15 2.791-5.15 2.791s-2.606-2.754-2.474-5.002c.071-1.255 1.415-2.595 3.247-1.715.743.356 1.059 1.387 1.059 1.387Z"/></svg>
